X:252
T:B252-  Jog On, or Eighty-Eight
S:(2nd/2)
Q:1/4=120
L:1/4
M:6/4
K:Gmixolydian
c|ccGccd|efeddB|cccggf|e3d2d|\
ddef3/2g/2f|eeedcB|c2cBcd|A3G2|]

